public/images/icons/socials/telegram.svg

<svg xmlns="http://www.w3.org/2000/svg" width="24" height="24" viewBox="0 0 24 24"><path fill="#E5E5E5" fill-rule="evenodd" d="M23.9184818,3.86824103 L20.3084818,20.918241 C20.0584818,22.128241 19.3284818,22.418241 18.3084818,21.858241 L12.8084818,17.788241 L10.1484818,20.358241 C9.84848181,20.658241 9.59848181,20.918241 9.04848181,20.918241 C8.32848181,20.918241 8.44848181,20.648241 8.20848181,19.968241 L6.30848181,13.778241 L0.858481807,12.078241 C-0.321518193,11.728241 -0.331518193,10.918241 1.11848181,10.328241 L22.3784818,2.12824103 C23.3484818,1.69824103 24.2784818,2.36824103 23.9084818,3.85824103 L23.9184818,3.86824103 Z"/></svg>

<svg viewBox="0 0 24 24"><path fill="#E5E5E5" fill-rule="evenodd" d="M23.918 3.868l-3.61 17.05c-.25 1.21-.98 1.5-2 .94l-5.5-4.07-2.66 2.57c-.3.3-.55.56-1.1.56-.72 0-.6-.27-.84-.95l-1.9-6.19-5.45-1.7c-1.18-.35-1.19-1.16.26-1.75l21.26-8.2c.97-.43 1.9.24 1.53 1.73l.01.01z"/></svg>
